assets/img/icons/duotone-icons/Electric/Washer.svg

<?xml version="1.0" encoding="UTF-8"?>
<svg width="24px" height="24px" viewBox="0 0 24 24" version="1.1" xmlns="http://www.w3.org/2000/svg" xmlns:xlink="http://www.w3.org/1999/xlink">
    <!-- Generator: Sketch 52.2 (67145) - http://www.bohemiancoding.com/sketch -->
    <title>Stockholm-icons / Electric / Washer</title>
    <desc>Created with Sketch.</desc>
    <g id="Stockholm-icons-/-Electric-/-Washer" stroke="none" stroke-width="1" fill="none" fill-rule="evenodd">
        <rect id="bound" x="0" y="0" width="24" height="24"></rect>
        <path d="M6,4 C5.44771525,4 5,4.44771525 5,5 L5,8 L19,8 L19,5 C19,4.44771525 18.5522847,4 18,4 L6,4 Z M6,2 L18,2 C19.6568542,2 21,3.34314575 21,5 L21,20 C21,21.6568542 19.6568542,23 18,23 L6,23 C4.34314575,23 3,21.6568542 3,20 L3,5 C3,3.34314575 4.34314575,2 6,2 Z M12,21.5 C15.3137085,21.5 18,18.8137085 18,15.5 C18,12.1862915 15.3137085,9.5 12,9.5 C8.6862915,9.5 6,12.1862915 6,15.5 C6,18.8137085 8.6862915,21.5 12,21.5 Z M7,7 C7.55228475,7 8,6.55228475 8,6 C8,5.44771525 7.55228475,5 7,5 C6.44771525,5 6,5.44771525 6,6 C6,6.55228475 6.44771525,7 7,7 Z M10,7 C10.5522847,7 11,6.55228475 11,6 C11,5.44771525 10.5522847,5 10,5 C9.44771525,5 9,5.44771525 9,6 C9,6.55228475 9.44771525,7 10,7 Z" id="Combined-Shape" fill="#335EEA"></path>
        <path d="M12,19.5 C14.209139,19.5 16,17.709139 16,15.5 C16,13.290861 14.209139,11.5 12,11.5 C9.790861,11.5 8,13.290861 8,15.5 C8,17.709139 9.790861,19.5 12,19.5 Z" id="Path" fill="#335EEA" opacity="0.3"></path>
    </g>
</svg>

<svg width="24" height="24" viewBox="0 0 24 24" xmlns="http://www.w3.org/2000/svg"><g fill="none" fill-rule="evenodd"><path d="M0 0h24v24H0z"/><path d="M6 4a1 1 0 00-1 1v3h14V5a1 1 0 00-1-1H6zm0-2h12a3 3 0 013 3v15a3 3 0 01-3 3H6a3 3 0 01-3-3V5a3 3 0 013-3zm6 19.5a6 6 0 100-12 6 6 0 000 12zM7 7a1 1 0 100-2 1 1 0 000 2zm3 0a1 1 0 100-2 1 1 0 000 2z" fill="#335EEA"/><path d="M12 19.5a4 4 0 100-8 4 4 0 000 8z" fill="#335EEA" opacity=".3"/></g></svg>
